archdroid-icon-theme/Archdroid-Lime/actions/scalable/document-page-setup.svg

<svg xmlns="http://www.w3.org/2000/svg" viewBox="0 0 38 44" fill="#CDDC39"><path d="m38 34v10h-10v-4h6v-6h4m0-24v-10h-10v4h6v6h4m-38 0v-10h10v4h-6v6h-4m0 24v10h10v-4h-6v-6h-4m12-26c-2.216 0-4 1.784-4 4v20c0 2.216 1.784 4 4 4h14c2.216 0 4-1.784 4-4v-16l-8-8h-10m8 3l7 7h-7v-7zm-7 11h12v3h-12v-3m0 6h12v3h-12v-3" fill="#CDDC39"/></svg>

<?xml version="1.0" encoding="UTF-8" standalone="no"?>
<svg
   xmlns:dc="http://purl.org/dc/elements/1.1/"
   xmlns:cc="http://creativecommons.org/ns#"
   xmlns:rdf="http://www.w3.org/1999/02/22-rdf-syntax-ns#"
   xmlns:svg="http://www.w3.org/2000/svg"
   xmlns="http://www.w3.org/2000/svg"
   xmlns:sodipodi="http://sodipodi.sourceforge.net/DTD/sodipodi-0.dtd"
   xmlns:inkscape="http://www.inkscape.org/namespaces/inkscape"
   width="38"
   height="44"
   viewBox="0 0 38 44"
   id="svg2"
   version="1.1"
   inkscape:version="0.91 r13725"
   sodipodi:docname="document-page-setup.svg"
   style="fill:#CDDC39">
  <metadata
     id="metadata10">
    <rdf:RDF>
      <cc:Work
         rdf:about="">
        <dc:format>image/svg+xml</dc:format>
        <dc:type
           rdf:resource="http://purl.org/dc/dcmitype/StillImage" />
        <dc:title />
        <dc:title />
      </cc:Work>
    </rdf:RDF>
  </metadata>
  <defs
     id="defs8" />
  <sodipodi:namedview
     pagecolor="#ffffff"
     bordercolor="#666666"
     borderopacity="1"
     objecttolerance="10"
     gridtolerance="10"
     guidetolerance="10"
     inkscape:pageopacity="0"
     inkscape:pageshadow="2"
     inkscape:window-width="1366"
     inkscape:window-height="713"
     id="namedview6"
     showgrid="false"
     inkscape:snap-bbox="true"
     inkscape:bbox-paths="true"
     inkscape:bbox-nodes="true"
     inkscape:snap-bbox-midpoints="false"
     inkscape:zoom="6.179518388275627"
     inkscape:cx="24.15193604702382"
     inkscape:cy="3.87710070408643"
     inkscape:window-x="0"
     inkscape:window-y="30"
     inkscape:window-maximized="1"
     inkscape:current-layer="svg2"
     fit-margin-top="0"
     fit-margin-left="0"
     fit-margin-right="0"
     fit-margin-bottom="0"
     inkscape:object-paths="true"
     inkscape:snap-intersection-paths="true"
     inkscape:object-nodes="true"
     inkscape:snap-smooth-nodes="true"
     inkscape:snap-nodes="false"
     inkscape:snap-page="true" />
  <path
     id="path4274"
     style="opacity:1;fill:#CDDC39;fill-opacity:1;fill-rule:nonzero;stroke:none;stroke-width:3;stroke-miterlimit:4;stroke-dasharray:none;stroke-opacity:1"
     d="m 37.99999999999997,34 0,10 L 28,44 l 0,-4 5.99999999999997,0 0,-6 4,0 z m 0,-24 0,-10 L 28,0 l 0,4 5.99999999999997,0 0,6 4,0 z M 0,10 0,0 l 9.999999999999969,0 0,4 L 4,4 4,10 0,10 Z m 0,24 0,10 9.999999999999969,0 0,-4 L 4,40 4,34 0,34 Z M 12,8 C 9.783999999999998,8 8,9.783999999999998 8,12 l 0,20 c 0,2.216 1.783999999999997,4 4,4 l 14,0 c 2.216,0 4,-1.784 4,-4 L 30,16 22,8 12,8 Z m 8,3 7,7 -7,0 0,-7 z m -7,11 12,0 0,3 -12,0 0,-3 z m 0,6 12,0 0,3 -12,0 0,-3 z" />
</svg>
